X:1441
T:Bill Hart's Jig
M:6/8
L:1/8
C:Trad
R:JIG
K:G
~D3  ~A3 | BAG ABA | ~D3  ~A3 | BAG EGE | ~D3  ~A3 | BAG ABc | d2B cB
A | BAG EGE :|!
 d2B c2A | BAG ABc | d2B c2A | BAG E2D | d2B c2A | BAG ABc | ded c2A | B
AG E2D :| !
~A3 ~ e3| fed efe |~ A3  ~e3 | fed BdB |~ A3  ~e3 | fed efg | aba g2e |
fed BdB :|!
 | a2fg2e | fed efg | aba g2e | fed B2A | agf gfe | fed efg | aba
g2e | fed BdB |


